X: 20272
T: Joe's
R: jig
M: 6/8
K: Edorian
EFA ~B3|EFA B2e|def edB|BAF (d3|d)BA ~B3|EFA B2e|def edB|AFD E2B:|
EFA B2e|efe def|afe d2B|BAF (d3|d)BA B2e|efe def|afd edB|AFDE2B:|

